www/assets/icons/exposure.svg

<svg xmlns="http://www.w3.org/2000/svg" width="24" height="24" viewBox="0 0 24 24" fill='currentColor'><path d="M19 3H5c-1.1 0-2 .9-2 2v14c0 1.1.9 2 2 2h14c1.1 0 2-.9 2-2V5c0-1.1-.9-2-2-2M6 7h5v1.5H6zm13 12H5L19 5zm-4.5-3v2H16v-2h2v-1.5h-2v-2h-1.5v2h-2V16z"/></svg>

<svg width="24" height="24" viewBox="0 0 24 24" xmlns="http://www.w3.org/2000/svg" fill='currentColor'><path d="M19 3H5C3.9 3 3 3.9 3 5V19C3 20.1 3.9 21 5 21H19C20.1 21 21 20.1 21 19V5C21 3.9 20.1 3 19 3ZM6 7H11V8.5H6V7ZM19 19H5L19 5V19ZM14.5 16V18H16V16H18V14.5H16V12.5H14.5V14.5H12.5V16H14.5Z"/></svg>
